!!!OTL: Quartett in G für 2 Violinen, Viola und Violoncello, 4. Satz, KV 387/04
!!!system-decoration: [(s1,s2,s3,s4)]
**kern	**kern	**kern	**kern	**dynam	**kern	**kern	**kern	**kern	**dynam	**kern	**kern	**kern	**kern	**dynam	**kern	**kern	**kern	**kern	**dynam
*part4	*part4	*part4	*part4	*part4	*part3	*part3	*part3	*part3	*part3	*part2	*part2	*part2	*part2	*part2	*part1	*part1	*part1	*part1	*part1
*staff16	*staff15	*staff14	*staff13	*	*staff12	*staff11	*staff10	*staff9	*	*staff8	*staff7	*staff6	*staff5	*	*staff4	*staff3	*staff2	*staff1	*
*I"Violoncello	*	*	*	*	*I"Viola	*	*	*	*	*I"Violino II	*	*	*	*	*I"Violino I	*	*	*	*
*clefF4	*	*clefC3	*	*clefG2	*	*clefG2	*
*k[f#]	*	*k[f#]	*	*k[f#]	*	*k[f#]	*
*M4/4	*	*M4/4	*	*M4/4	*	*M4/4	*
1r	.	1r	.	(>1g	.	1r	.
=2	=2	=2	=2	=2	=2	=2	=2
1r	.	1r	.	1b	.	1r	.
=3	=3	=3	=3	=3	=3	=3	=3
1r	.	1r	.	1ee	.	1r	.
=4	=4	=4	=4	=4	=4	=4	=4
1r	.	1r	.	1cc#)	.	1r	.
=5	=5	=5	=5	=5	=5	=5	=5
1r	.	1r	.	2dd	.	(1dd	.
.	.	.	.	4r	.	.	.
.	.	.	.	[4dd	.	.	.
=6	=6	=6	=6	=6	=6	=6	=6
1r	.	1r	.	(4dd_	.	1ee	.
.	.	.	.	4ccn)	.	.	.
.	.	.	.	4r	.	.	.
.	.	.	.	[4b	.	.	.
=7	=7	=7	=7	=7	=7	=7	=7
1r	.	1r	.	(4b_	.	1aa	.
.	.	.	.	4a)	.	.	.
.	.	.	.	4r	.	.	.
.	.	.	.	[4ee	.	.	.
=8	=8	=8	=8	=8	=8	=8	=8
1r	.	1r	.	(4ee_	.	1ff#y)	.
.	.	.	.	4dd)	.	.	.
.	.	.	.	4r	.	.	.
.	.	.	.	[4cc	.	.	.
=9	=9	=9	=9	=9	=9	=9	=9
(1G	.	1r	.	(4cc_	.	2gg	.
.	.	.	.	4b)	.	.	.
.	.	.	.	[2dd	.	4r	.
.	.	.	.	.	.	[4gg	.
=10	=10	=10	=10	=10	=10	=10	=10
1B	.	1r	.	4dd]	.	(4gg_	.
.	.	.	.	(4d	.	4ff#y)	.
.	.	.	.	2a)	.	4r	.
.	.	.	.	.	.	[4ff#y	.
=11	=11	=11	=11	=11	=11	=11	=11
1e	.	1r	.	4a]	.	(4ff#y_	.
.	.	.	.	(4g	.	4ee)	.
.	.	.	.	2gg)	.	4r	.
.	.	.	.	.	.	[4bb	.
!!LO:LB
=12	=12	=12	=12	=12	=12	=12	=12
1c#)	.	1r	.	4gg]	.	(4bb_	.
.	.	.	.	(4a	.	4aa)	.
.	.	.	.	2ee)	.	4r	.
.	.	.	.	.	.	[4gg	.
=13	=13	=13	=13	=13	=13	=13	=13
2d	.	(1d	.	(4ee_	.	(4gg_	.
.	.	.	.	4dd	.	4ff#y)	.
4r	.	.	.	4ff#y	.	[2aa	.
[4d	.	.	.	4f#y)	.	.	.
=14	=14	=14	=14	=14	=14	=14	=14
(4d_	.	1e	.	4r	.	4aa]	.
4cn)	.	.	.	(4e	.	(4a	.
4r	.	.	.	4f#y	.	2dd)	.
[4B	.	.	.	4g#)	.	.	.
=15	=15	=15	=15	=15	=15	=15	=15
(4B_	.	1a	.	4r	.	4dd]	.
4A)	.	.	.	(4e	.	(4cc	.
4r	.	.	.	4a	.	2ccc)	.
[4e	.	.	.	4gn)	.	.	.
=16	=16	=16	=16	=16	=16	=16	=16
(4e_	.	1f#y)	.	4r	.	4ccc]	.
4d)	.	.	.	(4a	.	(4dd	.
4r	.	.	.	4cc	.	2aa)	.
[4c	.	.	.	4d)	.	.	.
=17	=17	=17	=17	=17	=17	=17	=17
(4c_	.	2g	.	2d	.	(4aa_	.
4B)	.	.	.	.	.	4gg)	.
2r	.	2r	.	2r	.	(8ggL	.
.	.	.	.	.	.	8ff#y)	.
.	.	.	.	.	.	8ee'	.
.	.	.	.	.	.	8dd'J	.
=18	=18	=18	=18	=18	=18	=18	=18
2r	.	2r	.	2r	.	(8ccL	.
.	.	.	.	.	.	8b)	.
.	.	.	.	.	.	8a'	.
.	.	.	.	.	.	8g'J	.
4D	.	4d 4c	.	4a 4f#y	.	8f#yL	.
.	.	.	.	.	.	8a	.
4r	.	4r	.	4r	.	8dd	.
.	.	.	.	.	.	8ccJ	.
=19	=19	=19	=19	=19	=19	=19	=19
4G	.	4d 4B	.	4b 4g	.	(8bL	.
.	.	.	.	.	.	8dd)	.
4r	.	4r	.	4r	.	8gg	.
.	.	.	.	.	.	8ff#yJ	.
2r	.	2r	.	2r	.	(8ggL	.
.	.	.	.	.	.	8ff#y)	.
.	.	.	.	.	.	8ee	.
.	.	.	.	.	.	8ddJ	.
=20	=20	=20	=20	=20	=20	=20	=20
2r	.	2r	.	2r	.	(8ccL	.
.	.	.	.	.	.	8b)	.
.	.	.	.	.	.	8a	.
.	.	.	.	.	.	8gJ	.
4D	.	4d 4c	.	4a 4f#y	.	8f#yL	.
.	.	.	.	.	.	8a	.
4r	.	4r	.	4r	.	8dd	.
.	.	.	.	.	.	8ccJ	.
=21	=21	=21	=21	=21	=21	=21	=21
4G	.	4d 4B	.	4b 4g	.	(8bL	.
.	.	.	.	.	.	8dd)	.
4r	.	4r	.	4r	.	8gg	.
.	.	.	.	.	.	8ff#yJ	.
4E	.	4B	.	4g	.	(8ggL	.
.	.	.	.	.	.	8ff#y)	.
4r	.	4r	.	4r	.	8ee	.
.	.	.	.	.	.	8ddJ	.
=22	=22	=22	=22	=22	=22	=22	=22
4C	.	4A	.	4g	.	(8eeL	.
.	.	.	.	.	.	8dd)	.
4r	.	4r	.	4r	.	8cc	.
.	.	.	.	.	.	8bJ	.
4D	.	4c	.	4f#y	.	4a	.
4r	.	4r	.	4r	.	4dd	.
=23	=23	=23	=23	=23	=23	=23	=23
4GG	.	4B	.	4g	.	4g	.
4r	.	4r	.	4r	.	4r	.
2r	.	2r	.	(8ggL	.	2r	.
.	.	.	.	8ff#y)	.	.	.
.	.	.	.	8ee'	.	.	.
.	.	.	.	8dd'J	.	.	.
=24	=24	=24	=24	=24	=24	=24	=24
2r	.	2r	.	(8ccL	.	2r	.
.	.	.	.	8b)	.	.	.
.	.	.	.	8a'	.	.	.
.	.	.	.	8g'J	.	.	.
4D	.	4d 4c	.	8f#yL	.	4a 4f#y	.
.	.	.	.	8a	.	.	.
4r	.	4r	.	8dd	.	4r	.
.	.	.	.	8ccJ	.	.	.
=25	=25	=25	=25	=25	=25	=25	=25
4G	.	4d 4B	.	(8bL	.	4b 4g	.
.	.	.	.	8dd)	.	.	.
4r	.	4r	.	8gg	.	4r	.
.	.	.	.	8ff#yJ	.	.	.
2r	.	2r	.	(8ggL	.	2r	.
.	.	.	.	8ff#y)	.	.	.
.	.	.	.	8ee	.	.	.
.	.	.	.	8ddJ	.	.	.
!!LO:LB
=26	=26	=26	=26	=26	=26	=26	=26
2r	.	2r	.	(8ccL	.	2r	.
.	.	.	.	8b)	.	.	.
.	.	.	.	8a	.	.	.
.	.	.	.	8gJ	.	.	.
4D	.	4d 4c	.	8f#yL	.	4a 4f#y	.
.	.	.	.	8a	.	.	.
4r	.	4r	.	8dd	.	4r	.
.	.	.	.	8ccJ	.	.	.
=27	=27	=27	=27	=27	=27	=27	=27
4G	.	4d 4B	.	(8bL	.	4b 4g	.
.	.	.	.	8dd)	.	.	.
4r	.	4r	.	8gg	.	4r	.
.	.	.	.	8ff#yJ	.	.	.
4E	.	4B	.	(8ggL	.	4g	.
.	.	.	.	8ff#y)	.	.	.
4r	.	4r	.	8ee	.	4r	.
.	.	.	.	8ddJ	.	.	.
=28	=28	=28	=28	=28	=28	=28	=28
4C	.	4A	.	(8eeL	.	4g	.
.	.	.	.	8dd)	.	.	.
4r	.	4r	.	8cc	.	4r	.
.	.	.	.	8bJ	.	.	.
4D	.	4c	.	4a	.	4f#y	.
4r	.	4r	.	4dd	.	4r	.
=29	=29	=29	=29	=29	=29	=29	=29
4G	.	4B	.	4g	.	4g	.
4r	.	4r	.	4r	.	4r	.
4E	.	(8gL	.	4g 4B	.	2r	.
.	.	8f#y)	.	.	.	.	.
4r	.	8e'	.	4r	.	.	.
.	.	8d'J	.	.	.	.	.
=30	=30	=30	=30	=30	=30	=30	=30
4C	.	(8eL	.	4g 4A	.	1r	.
.	.	8d)	.	.	.	.	.
4r	.	8c'	.	4r	.	.	.
.	.	8B'J	.	.	.	.	.
4D	.	4A	.	4f#y 4c	.	.	.
4r	.	4d	.	4r	.	.	.
=31	=31	=31	=31	=31	=31	=31	=31
4GG	.	4G	.	4g 4B	.	2.g	.
4r	.	4r	.	4r	.	.	.
(8GL	.	2r	.	2r	.	.	.
8F#y)	.	.	.	.	.	.	.
8E'	.	.	.	.	.	[4g	.
8D'J	.	.	.	.	.	.	.
=32	=32	=32	=32	=32	=32	=32	=32
(8EL	.	4B	.	2r	.	4g]	.
8D)	.	.	.	.	.	.	.
8C'	.	8AL	.	.	.	(2g	.
8BB'J	.	8BJ	.	.	.	.	.
4AA	.	4c	.	[2a	.	.	.
4D	.	8dL	.	.	.	4f#y)	.
.	.	8cJ	.	.	.	.	.
!!LO:LB
=33	=33	=33	=33	=33	=33	=33	=33
2GG	.	4B	.	4a]	.	2.b	.
.	.	4d	.	4a	.	.	.
(8BL	.	2g	.	(4d	.	.	.
8A)	.	.	.	.	.	.	.
8G'	.	.	.	4g)	.	[4b	.
8F#y'J	.	.	.	.	.	.	.
=34	=34	=34	=34	=34	=34	=34	=34
(8GL	.	4d	.	2r	.	4b]	.
8F#y)	.	.	.	.	.	.	.
8E'	.	8c#L	.	.	.	(2b	.
8D'J	.	8dJ	.	.	.	.	.
4C#	.	4e	.	[2cc#	.	.	.
4F#y	.	8f#yL	.	.	.	4a#)	.
.	.	8eJ	.	.	.	.	.
=35	=35	=35	=35	=35	=35	=35	=35
2BB	.	4d	.	4cc#y]	.	2.dd	.
.	.	4f#y	.	4cc	.	.	.
(8dL	.	2b	.	(4f#y	.	.	.
8c#)	.	.	.	.	.	.	.
8B	.	.	.	4b)	.	[4dd	.
8AJ	.	.	.	.	.	.	.
=36	=36	=36	=36	=36	=36	=36	=36
(8BL	.	4f#y	.	2r	.	4dd]	.
8A)	.	.	.	.	.	.	.
8G	.	8eL	.	.	.	(2dd	.
8F#yJ	.	8f#yJ	.	.	.	.	.
4E	.	4g	.	[2ee	.	.	.
4A	.	8aL	.	.	.	4cc#)	.
.	.	8gJ	.	.	.	.	.
=37	=37	=37	=37	=37	=37	=37	=37
8DL	.	4f#y	.	4ee]	.	[1ff#y	.
8E	.	.	.	.	.	.	.
8F#y	.	4a	.	4ee	.	.	.
8GJ	.	.	.	.	.	.	.
8AL	.	[2dd	.	4dd	.	.	.
8B	.	.	.	.	.	.	.
8c#	.	.	.	4cc#	.	.	.
8dJ	.	.	.	.	.	.	.
=38	=38	=38	=38	=38	=38	=38	=38
2G	.	(2dd_	.	2b	.	4ff#y]	.
.	.	.	.	.	.	(2ee	.
2G#	.	2b)	.	2e	.	.	.
.	.	.	.	.	.	4dd)	.
=39	=39	=39	=39	=39	=39	=39	=39
2A	.	8aL	.	4e	.	4cc#	.
.	.	8a	.	.	.	.	.
.	.	8a	.	4r	.	4r	.
.	.	8aJ	.	.	.	.	.
2r	.	8aL	.	4r	.	4r	.
.	.	8a	.	.	.	.	.
.	.	8a	.	(4ff#y	.	(4aa	.
.	.	8aJ	.	.	.	.	.
!!LO:LB
=40	=40	=40	=40	=40	=40	=40	=40
1r	.	8aL	.	4ee#)	.	4gg#)	.
.	.	8a	.	.	.	.	.
.	.	8a	.	(4ee#y	.	(4gg#y	.
.	.	8aJ	.	.	.	.	.
.	.	8aL	.	4een)	.	4ggn)	.
.	.	8a	.	.	.	.	.
.	.	8a	.	(4ee	.	(4gg	.
.	.	8aJ	.	.	.	.	.
=41	=41	=41	=41	=41	=41	=41	=41
1r	.	8aL	.	4dd#)	.	4ff#y)	.
.	.	8a	.	.	.	.	.
.	.	8a	.	(4dd#y	.	(4ff#y	.
.	.	8aJ	.	.	.	.	.
.	.	8aL	.	4ddn)	.	4ffn)	.
.	.	8a	.	.	.	.	.
.	.	8a	.	(4dd	.	(4ff	.
.	.	8aJ	.	.	.	.	.
=42	=42	=42	=42	=42	=42	=42	=42
4r	.	8aL	.	4cc#)	.	4ee)	.
.	.	8a	.	.	.	.	.
4d	.	8a	.	4dd	.	4ffn 4a	.
.	.	8aJ	.	.	.	.	.
4A	.	8aL	.	4cc#y	.	4ee 4a	.
.	.	8a	.	.	.	.	.
4d	.	8a	.	4dd	.	4ff 4a	.
.	.	8aJ	.	.	.	.	.
=43	=43	=43	=43	=43	=43	=43	=43
2A	.	8aL	.	4cc#	.	4ee 4a	.
.	.	8a	.	.	.	.	.
.	.	8a	.	4r	.	4r	.
.	.	8aJ	.	.	.	.	.
2r	.	8aL	.	4r	.	4r	.
.	.	8a	.	.	.	.	.
.	.	8a	.	(4ff#	.	(4aa	.
.	.	8aJ	.	.	.	.	.
=44	=44	=44	=44	=44	=44	=44	=44
1r	.	8aL	.	4ee#)	.	4gg#)	.
.	.	8a	.	.	.	.	.
.	.	8a	.	(4ee#y	.	(4gg#y	.
.	.	8aJ	.	.	.	.	.
.	.	8aL	.	4een)	.	4ggn)	.
.	.	8a	.	.	.	.	.
.	.	8a	.	(4ee	.	(4gg	.
.	.	8aJ	.	.	.	.	.
=45	=45	=45	=45	=45	=45	=45	=45
1r	.	8aL	.	4dd#)	.	4ff#)	.
.	.	8a	.	.	.	.	.
.	.	8a	.	(4dd#y	.	(4ff#y	.
.	.	8aJ	.	.	.	.	.
.	.	8aL	.	4ddn)	.	4ffn)	.
.	.	8a	.	.	.	.	.
.	.	8a	.	(4dd	.	(4ff	.
.	.	8aJ	.	.	.	.	.
=46	=46	=46	=46	=46	=46	=46	=46
4r	.	8aL	.	4cc#)	.	4ee)	.
.	.	8a	.	.	.	.	.
4D	.	8a	.	4dd	.	4ffn 4a	.
.	.	8aJ	.	.	.	.	.
4AA	.	8aL	.	4cc#y	.	4ee 4a	.
.	.	8a	.	.	.	.	.
4D	.	8a	.	4dd	.	4ff 4a	.
.	.	8aJ	.	.	.	.	.
=47	=47	=47	=47	=47	=47	=47	=47
4AA	.	8aL	.	4cc#	.	4ee 4a	.
.	.	8a	.	.	.	.	.
4r	.	8b-	.	4r	.	(4gg#	.
.	.	8b-yJ	.	.	.	.	.
2r	.	8aL	.	2r	.	4aa	.
.	.	8a	.	.	.	.	.
.	.	8b-y	.	.	.	4gg#y	.
.	.	8b-yJ	.	.	.	.	.
=48	=48	=48	=48	=48	=48	=48	=48
4r	.	8aL	.	4r	.	4aa)	.
.	.	8a	.	.	.	.	.
4d	.	8g#	.	4dd	.	4ffn	.
.	.	8g#yJ	.	.	.	.	.
4A	.	8aL	.	4cc#	.	4ee	.
.	.	8a	.	.	.	.	.
4d	.	8g#y	.	4dd	.	4ff	.
.	.	8g#yJ	.	.	.	.	.
=49	=49	=49	=49	=49	=49	=49	=49
4A	.	8aL	.	4cc#	.	4ee	.
.	.	8a	.	.	.	.	.
4r	.	8b-	.	4r	.	(4gg#	.
.	.	8b-yJ	.	.	.	.	.
2r	.	8aL	.	2r	.	4aa	.
.	.	8a	.	.	.	.	.
.	.	8b-y	.	.	.	4gg#y	.
.	.	8b-yJ	.	.	.	.	.
=50	=50	=50	=50	=50	=50	=50	=50
4r	.	8aL	.	4r	.	4aa)	.
.	.	8a	.	.	.	.	.
4D	.	8g#	.	4dd	.	4ffn	.
.	.	8g#yJ	.	.	.	.	.
4AA	.	8aL	.	4cc#	.	4ee	.
.	.	8a	.	.	.	.	.
4D	.	8g#y	.	4dd	.	4ff	.
.	.	8g#yJ	.	.	.	.	.
=51	=51	=51	=51	=51	=51	=51	=51
2AA	.	2a	.	2cc#	.	2ee	.
[2A	.	2r	.	2r	.	2r	.
!!LO:LB
=52	=52	=52	=52	=52	=52	=52	=52
4A]	.	1r	.	1r	.	1r	.
4D	.	.	.	.	.	.	.
[2G	.	.	.	.	.	.	.
=53	=53	=53	=53	=53	=53	=53	=53
4G]	.	1r	.	1r	.	1r	.
4A	.	.	.	.	.	.	.
[2B	.	.	.	.	.	.	.
=54	=54	=54	=54	=54	=54	=54	=54
4B]	.	1r	.	1r	.	1r	.
4E	.	.	.	.	.	.	.
4A	.	.	.	.	.	.	.
4G	.	.	.	.	.	.	.
=55	=55	=55	=55	=55	=55	=55	=55
4F#y	.	2r	.	1r	.	1r	.
4G	.	.	.	.	.	.	.
4F#y	.	[2d	.	.	.	.	.
4E	.	.	.	.	.	.	.
=56	=56	=56	=56	=56	=56	=56	=56
4D	.	4d]	.	1r	.	1r	.
4E	.	4A	.	.	.	.	.
4D	.	[2d	.	.	.	.	.
4C#	.	.	.	.	.	.	.
=57	=57	=57	=57	=57	=57	=57	=57
4BB	.	4d]	.	1r	.	1r	.
4C#	.	4e	.	.	.	.	.
4BB	.	[2f#y	.	.	.	.	.
4AA	.	.	.	.	.	.	.
=58	=58	=58	=58	=58	=58	=58	=58
1GG#	.	4f#y]	.	1r	.	1r	.
.	.	4B	.	.	.	.	.
.	.	4e	.	.	.	.	.
.	.	4d	.	.	.	.	.
=59	=59	=59	=59	=59	=59	=59	=59
4AA	.	4c#	.	2r	.	1r	.
4E	.	4d	.	.	.	.	.
4A	.	4B	.	[2a	.	.	.
4G	.	4c#y	.	.	.	.	.
=60	=60	=60	=60	=60	=60	=60	=60
4F#y	.	4d	.	4a]	.	1r	.
4G	.	4B	.	4d	.	.	.
4E	.	4c#	.	[2g	.	.	.
4F#y	.	4d	.	.	.	.	.
!!LO:LB
=61	=61	=61	=61	=61	=61	=61	=61
4G	.	4e	.	4g]	.	1r	.
4F#y	.	4d	.	4a	.	.	.
4E	.	4g	.	[2b	.	.	.
4D	.	4f#y	.	.	.	.	.
=62	=62	=62	=62	=62	=62	=62	=62
4C#	.	4e	.	4b]	.	1r	.
4BB	.	4d	.	4e	.	.	.
4AA	.	4c#	.	4a	.	.	.
4C#y	.	4e	.	4g	.	.	.
=63	=63	=63	=63	=63	=63	=63	=63
2D	.	4d	.	4f#y	.	2r	.
.	.	4e	.	4g	.	.	.
2r	.	4f#y	.	4a	.	[2dd	.
.	.	4e	.	4g	.	.	.
=64	=64	=64	=64	=64	=64	=64	=64
1r	.	4d	.	4f#y	.	4dd]	.
.	.	4e	.	4g	.	4a	.
.	.	4d	.	4f#y	.	[2dd	.
.	.	4c#	.	4e	.	.	.
=65	=65	=65	=65	=65	=65	=65	=65
1r	.	4B	.	4d	.	4dd]	.
.	.	4A	.	4c#	.	4ee	.
.	.	4G#	.	4B	.	[2ff#y	.
.	.	4F#y	.	4A	.	.	.
=66	=66	=66	=66	=66	=66	=66	=66
1r	.	[1E	.	2G#	.	4ff#y]	.
.	.	.	.	.	.	4b	.
.	.	.	.	[2Gn	.	4ee	.
.	.	.	.	.	.	4dd	.
=67	=67	=67	=67	=67	=67	=67	=67
1r	.	4E]	.	4G]	.	2cc#	.
.	.	8eL	.	8gL	.	.	.
.	.	8dJ	.	8f#yJ	.	.	.
.	.	4e	.	4g	.	[2bb	.
.	.	4d	.	4f#y	.	.	.
=68	=68	=68	=68	=68	=68	=68	=68
1r	.	1c#	.	1e	.	4bb]	.
.	.	.	.	.	.	4ee	.
.	.	.	.	.	.	4aa	.
.	.	.	.	.	.	4gg	.
=69	=69	=69	=69	=69	=69	=69	=69
1D	.	2d	.	2d	.	2ff#y	.
.	.	2f#y	.	[2dd	.	2r	.
!!LO:LB
=70	=70	=70	=70	=70	=70	=70	=70
1F#y	.	2.a	.	4dd]	.	1r	.
.	.	.	.	4a	.	.	.
.	.	.	.	[2dd	.	.	.
.	.	4g	.	.	.	.	.
=71	=71	=71	=71	=71	=71	=71	=71
1B	.	4f#y	.	4dd]	.	1r	.
.	.	4e	.	4ee	.	.	.
.	.	4d	.	[2ff#y	.	.	.
.	.	4c#	.	.	.	.	.
=72	=72	=72	=72	=72	=72	=72	=72
1G#	.	2B	.	4ff#y]	.	1r	.
.	.	.	.	4b	.	.	.
.	.	2b	.	4ee	.	.	.
.	.	.	.	4dd	.	.	.
=73	=73	=73	=73	=73	=73	=73	=73
[1A	.	2e	.	2cc#	.	1a	.
.	.	[2a	.	2c#	.	.	.
=74	=74	=74	=74	=74	=74	=74	=74
1A_	.	4a]	.	4d	.	1b	.
.	.	4d	.	2dd	.	.	.
.	.	[2g	.	.	.	.	.
.	.	.	.	4cc#	.	.	.
=75	=75	=75	=75	=75	=75	=75	=75
1A_	.	4g]	.	4b	.	1ee	.
.	.	4a	.	4a	.	.	.
.	.	[2b	.	4g	.	.	.
.	.	.	.	4f#y	.	.	.
=76	=76	=76	=76	=76	=76	=76	=76
1A]	.	4b]	.	4e	.	1cc#	.
.	.	4e	.	4g	.	.	.
.	.	4a	.	4f#y	.	.	.
.	.	4g	.	4e	.	.	.
=77	=77	=77	=77	=77	=77	=77	=77
4D	.	2f#y	.	2d	.	2dd	.
4AA	.	.	.	.	.	.	.
[2D	.	2d	.	2r	.	2f#y	.
=78	=78	=78	=78	=78	=78	=78	=78
4D]	.	1f#y	.	1r	.	2.a	.
4AA	.	.	.	.	.	.	.
[2D	.	.	.	.	.	.	.
.	.	.	.	.	.	4g	.
=79	=79	=79	=79	=79	=79	=79	=79
4D]	.	1b	.	1r	.	4f#y	.
4E	.	.	.	.	.	4e	.
[2F#y	.	.	.	.	.	4d	.
.	.	.	.	.	.	4c#	.
=80	=80	=80	=80	=80	=80	=80	=80
4F#y]	.	1g#	.	1r	.	2B	.
4BB	.	.	.	.	.	.	.
4E	.	.	.	.	.	2b	.
4D	.	.	.	.	.	.	.
=81	=81	=81	=81	=81	=81	=81	=81
1C#	.	2a	.	1a	.	2e	.
.	.	2e	.	.	.	[2aa	.
=82	=82	=82	=82	=82	=82	=82	=82
1BB	.	4d	.	1b	.	4aa]	.
.	.	4f#y	.	.	.	4dd	.
.	.	4e	.	.	.	[2gg	.
.	.	4d	.	.	.	.	.
=83	=83	=83	=83	=83	=83	=83	=83
[1AA	.	2.c#	.	1ee	.	4gg]	.
.	.	.	.	.	.	4aa	.
.	.	.	.	.	.	[2bb	.
.	.	4d	.	.	.	.	.
=84	=84	=84	=84	=84	=84	=84	=84
2AA]	.	4e	.	[1cc#	.	4bb]	.
.	.	4g	.	.	.	4ee	.
(2A	.	4f#y	.	.	.	4aa	.
.	.	[4e	.	.	.	4gg	.
=85	=85	=85	=85	=85	=85	=85	=85
(4A#)	.	2e]	.	(4cc#y_	.	[1ff#y	.
4c	.	.	.	4a#	.	.	.
4B	.	(4d	.	4b	.	.	.
4An)	.	4d#)	.	4ccn)	.	.	.
=86	=86	=86	=86	=86	=86	=86	=86
[1G	.	[1e	.	1b	.	(4ff#y_	.
.	.	.	.	.	.	4b	.
.	.	.	.	.	.	4ee	.
.	.	.	.	.	.	4dd)	.
=87	=87	=87	=87	=87	=87	=87	=87
(2G_	.	(2e_	.	(2b-	.	(2cc#	.
2F#y	.	2A)	.	2a)	.	2dd)	.
=88	=88	=88	=88	=88	=88	=88	=88
2E	.	1B-	.	(2c#	.	[1g	.
2D)	.	.	.	2d	.	.	.
!!LO:LB
=89	=89	=89	=89	=89	=89	=89	=89
(2C#	.	1A	.	2e	.	(2g_	.
2D)	.	.	.	2d)	.	2f#y)	.
=90	=90	=90	=90	=90	=90	=90	=90
(2GG	.	(2Bn	.	(2d_	.	1eT	.
2AA)	.	4A	.	2c#)	.	.	.
.	.	4G)	.	.	.	.	.
=91	=91	=91	=91	=91	=91	=91	=91
4DD	.	4F#y	.	4d	.	4d	.
4r	.	4F#y	.	4A	.	4r	.
2r	.	4F#y	.	4A	.	2r	.
.	.	4F#y	.	4A	.	.	.
=92	=92	=92	=92	=92	=92	=92	=92
4D	.	4F#y	.	4A	.	2aa	.
4r	.	4F#y	.	4A	.	.	.
2r	.	4F#y	.	4A	.	(4.ff#y	.
.	.	4F#y	.	4A	.	.	.
.	.	.	.	.	.	8ddd)	.
=93	=93	=93	=93	=93	=93	=93	=93
4D	.	4F#y	.	4A	.	(2ddd	.
4r	.	4F#y	.	4A	.	.	.
2r	.	4F#y	.	4A	.	2aa)	.
.	.	4F#y	.	4A	.	.	.
=94	=94	=94	=94	=94	=94	=94	=94
4AA	.	4E	.	4c#	.	(2aa_	.
4r	.	4E	.	4c#y	.	.	.
2r	.	(4E	.	4c#y	.	4gg	.
.	.	4G)	.	4c#y	.	4ee)	.
=95	=95	=95	=95	=95	=95	=95	=95
4DD	.	(4G	.	(4c	.	(4.ee	.
4r	.	4F#y)	.	4d)	.	.	.
.	.	.	.	.	.	8ff#y)	.
2r	.	4A	.	4f#y	.	2dd	.
.	.	4A	.	4f#y	.	.	.
=96	=96	=96	=96	=96	=96	=96	=96
4D	.	4F#y	.	4A	.	2aa	.
4r	.	4F#y	.	4A	.	.	.
2r	.	4F#y	.	4A	.	(4.ff#y	.
.	.	4F#y	.	4A	.	.	.
.	.	.	.	.	.	8ddd)	.
=97	=97	=97	=97	=97	=97	=97	=97
4D	.	4F#y	.	4A	.	(2ddd	.
4r	.	4F#y	.	4A	.	.	.
2r	.	4F#y	.	4A	.	2aa)	.
.	.	4F#y	.	4A	.	.	.
=98	=98	=98	=98	=98	=98	=98	=98
4AA	.	4E	.	4c#	.	(2aa_	.
4r	.	4E	.	4c#y	.	.	.
2r	.	(4E	.	4c#y	.	4gg	.
.	.	4G)	.	4c#y	.	4ee)	.
!!LO:LB
=99	=99	=99	=99	=99	=99	=99	=99
4DD	.	4F#y	.	4d	.	8ddL	.
.	.	.	.	.	.	8a	.
4r	.	4r	.	4r	.	8b	.
.	.	.	.	.	.	8cc#J	.
2r	.	2r	.	2r	.	8ddL	.
.	.	.	.	.	.	8ee	.
.	.	.	.	.	.	8ff#y	.
.	.	.	.	.	.	8ggJ	.
=100	=100	=100	=100	=100	=100	=100	=100
!	!	!	!	!	!	!LO:TX:t=semplice	!
[1D	.	(4D	.	(8f#yL	.	4aa	.
.	.	.	.	8a	.	.	.
.	.	4F#y	.	8d	.	4aa	.
.	.	.	.	8aJ	.	.	.
.	.	4A	.	8f#yL	.	4ff#y	.
.	.	.	.	8a	.	.	.
.	.	4F#y)	.	8d	.	4ddd	.
.	.	.	.	8aJ)	.	.	.
=101	=101	=101	=101	=101	=101	=101	=101
1D]	.	(4D	.	(8f#yL	.	4ddd	.
.	.	.	.	8a	.	.	.
.	.	4F#y	.	8d	.	4ddd	.
.	.	.	.	8aJ	.	.	.
.	.	4A	.	8f#yL	.	[2aa	.
.	.	.	.	8a	.	.	.
.	.	4F#y)	.	8d	.	.	.
.	.	.	.	8aJ)	.	.	.
=102	=102	=102	=102	=102	=102	=102	=102
1AA	.	(4C#	.	(8gL	.	4aa]	.
.	.	.	.	8a	.	.	.
.	.	4E	.	8e	.	4aa	.
.	.	.	.	8aJ	.	.	.
.	.	4A	.	8gL	.	4gg	.
.	.	.	.	8a	.	.	.
.	.	4C#y)	.	8e	.	4ee	.
.	.	.	.	8aJ)	.	.	.
=103	=103	=103	=103	=103	=103	=103	=103
1DD	.	(4D	.	(8f#yL	.	4ee	.
.	.	.	.	8a	.	.	.
.	.	4F#y	.	8d	.	4ff#y	.
.	.	.	.	8aJ	.	.	.
.	.	4A	.	8f#yL	.	2dd	.
.	.	.	.	8a	.	.	.
.	.	4F#y)	.	8d	.	.	.
.	.	.	.	8aJ)	.	.	.
=104	=104	=104	=104	=104	=104	=104	=104
[1D	.	(4D	.	(8f#yL	.	(8gg#L	.
.	.	.	.	8a	.	8aa	.
.	.	4F#y	.	8d	.	8gg#y	.
.	.	.	.	8aJ	.	8aaJ	.
.	.	4A	.	8f#yL	.	4ff#y)	.
.	.	.	.	8a	.	.	.
.	.	4F#y)	.	8d	.	4ddd	.
.	.	.	.	8aJ)	.	.	.
!!LO:LB
=105	=105	=105	=105	=105	=105	=105	=105
1D]	.	(4D	.	(8f#yL	.	(8ccc#L	.
.	.	.	.	8a	.	8ddd	.
.	.	4F#y	.	8d	.	8ccc#y	.
.	.	.	.	8aJ	.	8dddJ	.
.	.	4A	.	8f#yL	.	4aa)	.
.	.	.	.	8a	.	.	.
.	.	4F#y)	.	8d	.	4r	.
.	.	.	.	8aJ)	.	.	.
=106	=106	=106	=106	=106	=106	=106	=106
1AA	.	(4C#	.	(8eL	.	(8gg#L	.
.	.	.	.	8a	.	8aa	.
.	.	4E	.	8c#	.	8gg#y	.
.	.	.	.	8aJ	.	8aaJ	.
.	.	4A	.	8eL	.	4ggn)	.
.	.	.	.	8a	.	.	.
.	.	4G)	.	8c#y	.	4ee	.
.	.	.	.	8aJ)	.	.	.
=107	=107	=107	=107	=107	=107	=107	=107
4D	.	8F#yL	.	8dL	.	4dd	.
.	.	8d	.	8f#y	.	.	.
8EL	.	8e	.	8g	.	4r	.
8F#yJ	.	8f#yJ	.	8aJ	.	.	.
8GL	.	8gL	.	8bL	.	2r	.
8A	.	8a	.	8cc#	.	.	.
8B	.	8b	.	8dd	.	.	.
8c#J	.	8cc#J	.	8eeJ	.	.	.
=108	=108	=108	=108	=108	=108	=108	=108
4d	.	4dd	.	4ff#y	.	4ff#y	.
4d	.	4dd	.	4ff#y	.	4ff#y	.
4c#	.	4a	.	4ee	.	4aa	.
4c#y	.	4a	.	4ee	.	4aa	.
=109	=109	=109	=109	=109	=109	=109	=109
2.B	.	2.f#y	.	2.dd	.	2.ddd	.
4F#y	.	4a	.	4dd	.	4dd	.
=110	=110	=110	=110	=110	=110	=110	=110
4A	.	4a	.	4dd	.	4ee	.
4A	.	4a	.	4dd	.	4ee	.
4A	.	4a	.	4cc#	.	4aa	.
4A	.	4a	.	4cc#y	.	4aa	.
=111	=111	=111	=111	=111	=111	=111	=111
4D	.	8aL	.	8ddL	.	2ff#y	.
.	.	8d	.	8f#y	.	.	.
8EL	.	8e	.	8g	.	.	.
8F#yJ	.	8f#yJ	.	8aJ	.	.	.
8GL	.	8gL	.	8bL	.	2r	.
8A	.	8a	.	8cc#	.	.	.
8B	.	8b	.	8dd	.	.	.
8c#J	.	8cc#J	.	8eeJ	.	.	.
=112	=112	=112	=112	=112	=112	=112	=112
4d	.	4dd	.	4ff#y	.	4ff#y	.
4d	.	4dd	.	4ff#y	.	4ff#y	.
4c#	.	4a	.	4ee	.	4aa	.
4c#y	.	4a	.	4ee	.	4aa	.
=113	=113	=113	=113	=113	=113	=113	=113
2.B	.	2.f#y	.	2.dd	.	2.ddd	.
4F#y	.	4a	.	4dd	.	4dd	.
=114	=114	=114	=114	=114	=114	=114	=114
4A	.	4a	.	4dd	.	4ee	.
4A	.	4a	.	4dd	.	4ee	.
4A	.	4g	.	4cc#	.	4aa	.
4A	.	4g	.	4cc#y	.	4aa	.
=115	=115	=115	=115	=115	=115	=115	=115
(2B	.	(2f#y	.	[1dd	.	2dd	.
2F#y	.	2a)	.	.	.	4r	.
.	.	.	.	.	.	(4dd	.
=116	=116	=116	=116	=116	=116	=116	=116
2G	.	(2b	.	2dd]	.	4ee)	.
.	.	.	.	.	.	(4ee	.
2A)	.	4a	.	2cc#	.	4aa)	.
.	.	4g)	.	.	.	(4aa	.
=117	=117	=117	=117	=117	=117	=117	=117
4B	.	4f#y	.	4dd	.	4dd)	.
4r	.	4r	.	4r	.	4r	.
4FF#y	.	4A	.	4d	.	4r	.
4r	.	4r	.	4r	.	(4d	.
=118	=118	=118	=118	=118	=118	=118	=118
4GG	.	4B	.	4d	.	4e)	.
4r	.	4r	.	4r	.	(4e	.
4AA	.	4G	.	4c#	.	4a)	.
4r	.	4r	.	4r	.	(4a	.
=119	=119	=119	=119	=119	=119	=119	=119
4DD	.	4F#y	.	4d	.	4d)	.
4r	.	4r	.	4r	.	4r	.
2r	.	2r	.	2r	.	4r	.
.	.	.	.	.	.	(4d	.
=120	=120	=120	=120	=120	=120	=120	=120
1r	.	1r	.	1r	.	4f#y)	.
.	.	.	.	.	.	(4f#y	.
.	.	.	.	.	.	4a)	.
.	.	.	.	.	.	(4a	.
!!LO:LB
=121	=121	=121	=121	=121	=121	=121	=121
[1d	.	[1a [1f#y	.	[1ccn	.	4ccn)	.
.	.	.	.	.	.	4r	.
.	.	.	.	.	.	4r	.
.	.	.	.	.	.	(4dd	.
=122	=122	=122	=122	=122	=122	=122	=122
1d_	.	1a_ 1f#y_	.	1cc_	.	4ff#y)	.
.	.	.	.	.	.	4r	.
.	.	.	.	.	.	4r	.
.	.	.	.	.	.	(4aa	.
=123	=123	=123	=123	=123	=123	=123	=123
4d]	.	4a] 4f#y]	.	4cc]	.	4ccc)	.
4r	.	4r	.	4r	.	4r	.
2r	.	2r	.	4r	.	2r	.
.	.	.	.	(4d	.	.	.
=124	=124	=124	=124	=124	=124	=124	=124
1r	.	1r	.	4e-	.	1r	.
.	.	.	.	4en	.	.	.
.	.	.	.	4fn	.	.	.
.	.	.	.	4f#)	.	.	.
=125:|!	=125:|!	=125:|!	=125:|!	=125:|!	=125:|!	=125:|!	=125:|!
1r	.	2r	.	[1g	.	1r	.
.	.	4r	.	.	.	.	.
.	.	(4b	.	.	.	.	.
=126	=126	=126	=126	=126	=126	=126	=126
1r	.	4cc	.	1g_	.	1r	.
.	.	4cc#	.	.	.	.	.
.	.	4dd	.	.	.	.	.
.	.	4dd#)	.	.	.	.	.
=127	=127	=127	=127	=127	=127	=127	=127
1r	.	[1ee	.	1g_	.	2r	.
.	.	.	.	.	.	4r	.
.	.	.	.	.	.	(4ff#y	.
=128	=128	=128	=128	=128	=128	=128	=128
1r	.	1ee_	.	1g]	.	4gg	.
.	.	.	.	.	.	4gg#	.
.	.	.	.	.	.	4aa	.
.	.	.	.	.	.	4aa#)	.
=129	=129	=129	=129	=129	=129	=129	=129
2r	.	1ee]	.	[1f#y	.	[1bb	.
4r	.	.	.	.	.	.	.
(4C#	.	.	.	.	.	.	.
!!LO:LB
=130	=130	=130	=130	=130	=130	=130	=130
4D	.	2ddn	.	(2f#y_	.	1bb_	.
4D#	.	.	.	.	.	.	.
4E	.	2r	.	2dd)	.	.	.
4E#	.	.	.	.	.	.	.
=131	=131	=131	=131	=131	=131	=131	=131
2F#y)	.	2r	.	(1cc#	.	(1bb_	.
2r	.	4r	.	.	.	.	.
.	.	(4G#	.	.	.	.	.
=132	=132	=132	=132	=132	=132	=132	=132
1r	.	4A	.	1ff#y)	.	1aan	.
.	.	4A#	.	.	.	.	.
.	.	4B	.	.	.	.	.
.	.	4B#	.	.	.	.	.
=133	=133	=133	=133	=133	=133	=133	=133
2r	.	2c#)	.	(1ff#y_	.	1gg#	.
4r	.	2r	.	.	.	.	.
(4E-	.	.	.	.	.	.	.
=134	=134	=134	=134	=134	=134	=134	=134
4En	.	1r	.	1ee)	.	1ccc)	.
4Fn	.	.	.	.	.	.	.
4G-	.	.	.	.	.	.	.
4Gn	.	.	.	.	.	.	.
=135	=135	=135	=135	=135	=135	=135	=135
2A-)	.	2r	.	(1dd#	.	(1ccc#y_	.
2r	.	4r	.	.	.	.	.
.	.	(4B-	.	.	.	.	.
=136	=136	=136	=136	=136	=136	=136	=136
1r	.	4c-	.	1gg#)	.	1bb	.
.	.	4cn	.	.	.	.	.
.	.	4d-	.	.	.	.	.
.	.	4dn	.	.	.	.	.
=137	=137	=137	=137	=137	=137	=137	=137
2r	.	2e-)	.	(1gg#y_	.	1bb-	.
4r	.	2r	.	.	.	.	.
(4Fn	.	.	.	.	.	.	.
=138	=138	=138	=138	=138	=138	=138	=138
4G-	.	1r	.	1ff#y)	.	1eee-)	.
4Gn	.	.	.	.	.	.	.
4A-	.	.	.	.	.	.	.
4An	.	.	.	.	.	.	.
!!LO:LB
=139	=139	=139	=139	=139	=139	=139	=139
2B-)	.	2r	.	(1ffn	.	(1eee-y_	.
2r	.	4r	.	.	.	.	.
.	.	(4c	.	.	.	.	.
=140	=140	=140	=140	=140	=140	=140	=140
1r	.	4d-	.	1bb-)	.	1ddd-)	.
.	.	4dn	.	.	.	.	.
.	.	4e-	.	.	.	.	.
.	.	4en	.	.	.	.	.
=141	=141	=141	=141	=141	=141	=141	=141
4Fn'	.	4fn)	.	4aa'	.	4cccn'	.
4F'	.	4en	.	4bb-'	.	4ddd-'	.
4F'	.	4f	.	4aa'	.	4ccc'	.
4F'	.	4e	.	4bb-y'	.	4ddd-y'	.
=142	=142	=142	=142	=142	=142	=142	=142
4F	.	4f	.	4aa	.	4ccc	.
4r	.	4r	.	4r	.	4r	.
2r	.	2r	.	2r	.	2r	.
=143	=143	=143	=143	=143	=143	=143	=143
1r	.	1r	.	1r	.	(1B-	.
=144	=144	=144	=144	=144	=144	=144	=144
1r	.	1r	.	1r	.	1d-	.
=145	=145	=145	=145	=145	=145	=145	=145
1r	.	4r	.	4r	.	1g-	.
.	.	4b-	.	4dd-	.	.	.
.	.	4b-y	.	4dd-y	.	.	.
.	.	4b-y	.	4dd-y	.	.	.
=146	=146	=146	=146	=146	=146	=146	=146
1r	.	4b	.	4dd	.	1en)	.
.	.	4b-y	.	4dd-y	.	.	.
.	.	4b-y	.	4dd-y	.	.	.
.	.	4b-y	.	4dd-y	.	.	.
=147	=147	=147	=147	=147	=147	=147	=147
(>1FF	.	(4b-	.	(4dd-	.	2fn	.
.	.	4a-)	.	4cc)	.	.	.
.	.	2a-y	.	2cc	.	2r	.
=148	=148	=148	=148	=148	=148	=148	=148
1AA-	.	1r	.	1r	.	1r	.
=149	=149	=149	=149	=149	=149	=149	=149
1D-	.	4r	.	4r	.	1r	.
.	.	4a-	.	4ff	.	.	.
.	.	4a-y	.	4ff	.	.	.
.	.	4a-y	.	4ff	.	.	.
=150	=150	=150	=150	=150	=150	=150	=150
1BBn)	.	4a	.	4ff	.	1r	.
.	.	4a-y	.	4ff	.	.	.
.	.	4a-y	.	4ff	.	.	.
.	.	4a-y	.	4ff	.	.	.
=151	=151	=151	=151	=151	=151	=151	=151
2C	.	(4a-	.	(4ff	.	(1cc	.
.	.	4g)	.	4ee-)	.	.	.
2r	.	2g	.	2ee-y	.	.	.
=152	=152	=152	=152	=152	=152	=152	=152
1r	.	1r	.	1r	.	1ee-	.
=153	=153	=153	=153	=153	=153	=153	=153
1r	.	4r	.	4r	.	1aa-	.
.	.	4c	.	4e-	.	.	.
.	.	4c	.	4e-y	.	.	.
.	.	4c	.	4e-y	.	.	.
=154	=154	=154	=154	=154	=154	=154	=154
1r	.	4c	.	4e	.	1ff#)	.
.	.	4c	.	4e-y	.	.	.
.	.	4c	.	4e-y	.	.	.
.	.	4c	.	4e-y	.	.	.
=155	=155	=155	=155	=155	=155	=155	=155
(>1GG	.	(4c	.	(4e	.	2gg	.
.	.	4B-)	.	4d)	.	.	.
.	.	2B-y	.	2d	.	2r	.
=156	=156	=156	=156	=156	=156	=156	=156
1BB-	.	1r	.	1r	.	1r	.
=157	=157	=157	=157	=157	=157	=157	=157
1E-	.	4r	.	4r	.	1r	.
.	.	4g	.	4b-	.	.	.
.	.	4g	.	4b-y	.	.	.
.	.	4g	.	4b-y	.	.	.
=158	=158	=158	=158	=158	=158	=158	=158
1C#)	.	4g	.	4b	.	1r	.
.	.	4g	.	4b-y	.	.	.
.	.	4g	.	4b-y	.	.	.
.	.	4g	.	4b-y	.	.	.
!!LO:LB
=159	=159	=159	=159	=159	=159	=159	=159
[1D	.	(4g	.	(4b-	.	4r	.
.	.	4f#)	.	4a)	.	4cc	.
.	.	[2f#y	.	[2a	.	4cc	.
.	.	.	.	.	.	4cc	.
=160	=160	=160	=160	=160	=160	=160	=160
1D]	.	1f#y]	.	1a]	.	4cc	.
.	.	.	.	.	.	4cc	.
.	.	.	.	.	.	4cc	.
.	.	.	.	.	.	4cc	.
=161	=161	=161	=161	=161	=161	=161	=161
[1GG	.	4r	.	4r	.	(4cc	.
.	.	4fn	.	4a-	.	4bn)	.
.	.	4f	.	4a-y	.	[2b	.
.	.	4f	.	4a-y	.	.	.
=162	=162	=162	=162	=162	=162	=162	=162
1GG]	.	4f	.	4a-	.	1b]	.
.	.	4f	.	4a-y	.	.	.
.	.	4f	.	4a-y	.	.	.
.	.	4f	.	4a-y	.	.	.
=163	=163	=163	=163	=163	=163	=163	=163
[1Cn	.	(4fn	.	(4a-	.	4r	.
.	.	4e)	.	4g)	.	(4b-	.
.	.	[2e	.	[2g	.	4bb-)	.
.	.	.	.	.	.	4bb-y	.
=164	=164	=164	=164	=164	=164	=164	=164
1C]	.	1e]	.	1g]	.	4bb-	.
.	.	.	.	.	.	4bb-y	.
.	.	.	.	.	.	4bb-y	.
.	.	.	.	.	.	4bb-y	.
=165	=165	=165	=165	=165	=165	=165	=165
[1FFn	.	4r	.	4r	.	(4bb-	.
.	.	(4c	.	(4d#	.	4aa)	.
.	.	4cc)	.	4dd#)	.	[2aa	.
.	.	4cc	.	4dd#y	.	.	.
=166	=166	=166	=166	=166	=166	=166	=166
1FF]	.	4cc	.	4dd#	.	2.aa]	.
.	.	4cc	.	4dd#y	.	.	.
.	.	4cc	.	4dd#y	.	.	.
.	.	4cc	.	4dd#y	.	4aa	.
=167	=167	=167	=167	=167	=167	=167	=167
4r	.	(4cc	.	(4dd#	.	(4aa	.
(4E	.	4b)	.	4ddn)	.	4gg#)	.
4e)	.	4b'	.	4dd'	.	[2gg#y	.
4e	.	4b'	.	4dd'	.	.	.
!!LO:LB
=168	=168	=168	=168	=168	=168	=168	=168
4e	.	(4b	.	(4dd	.	(4gg#y_	.
4e	.	4a#)	.	4cc#)	.	4ggn)	.
4e	.	4a#y'	.	4cc#y'	.	[2gg	.
4e	.	4a#y'	.	4cc#y'	.	.	.
=169	=169	=169	=169	=169	=169	=169	=169
(4e	.	(4a#	.	(4cc	.	(4gg_	.
4d#)	.	4an)	.	4ccn)	.	4ff#)	.
4d#y'	.	4a'	.	4cc'	.	4ff#y'	.
4d#y'	.	4a'	.	4cc'	.	4ff#y'	.
=170	=170	=170	=170	=170	=170	=170	=170
(4d#	.	(4a	.	(4cc	.	(4ff#y	.
4dn)	.	4a-)	.	4b)	.	4ffn)	.
4d'	.	4a-y'	.	4b'	.	4ff'	.
4d'	.	4a-y'	.	4b'	.	4ff'	.
=171	=171	=171	=171	=171	=171	=171	=171
(2d	.	1a-	.	(2b	.	[1ffn	.
2c	.	.	.	2cc	.	.	.
=172	=172	=172	=172	=172	=172	=172	=172
2B	.	(2g	.	2dd	.	1ff_	.
2A)	.	2c)	.	2cc)	.	.	.
=173	=173	=173	=173	=173	=173	=173	=173
4G	.	4d	.	4b	.	4ff]	.
4r	.	4r	.	4r	.	4r	.
2r	.	2r	.	2r	.	2r	.
=174	=174	=174	=174	=174	=174	=174	=174
1r	.	1r	.	1r	.	1r	.
=175	=175	=175	=175	=175	=175	=175	=175
4c	.	4g	.	4cc 4e	.	2r	.
4r	.	4r	.	4r	.	.	.
2r	.	2r	.	2r	.	(8cccL	.
.	.	.	.	.	.	8bb)	.
.	.	.	.	.	.	8aa'	.
.	.	.	.	.	.	8gg'J	.
=176	=176	=176	=176	=176	=176	=176	=176
2r	.	2r	.	2r	.	(8ffnL	.
.	.	.	.	.	.	8ee)	.
.	.	.	.	.	.	8dd	.
.	.	.	.	.	.	8ccJ	.
4G	.	4b 4g	.	4dd 4fn	.	8bL	.
.	.	.	.	.	.	8dd	.
4r	.	4r	.	4r	.	8gg	.
.	.	.	.	.	.	8ffJ	.
!!LO:LB
=177	=177	=177	=177	=177	=177	=177	=177
4c	.	4cc 4g	.	4cc 4e	.	(8eeL	.
.	.	.	.	.	.	8gg)	.
4r	.	4r	.	4r	.	8ccc	.
.	.	.	.	.	.	8bbJ	.
2r	.	2r	.	2r	.	(8cccL	.
.	.	.	.	.	.	8bb)	.
.	.	.	.	.	.	8aa	.
.	.	.	.	.	.	8ggJ	.
=178	=178	=178	=178	=178	=178	=178	=178
2r	.	2r	.	2r	.	(8ffnL	.
.	.	.	.	.	.	8ee)	.
.	.	.	.	.	.	8dd	.
.	.	.	.	.	.	8ccJ	.
4G	.	4b 4g	.	4dd 4fn	.	8bL	.
.	.	.	.	.	.	8dd	.
4r	.	4r	.	4r	.	8gg	.
.	.	.	.	.	.	8ffJ	.
=179	=179	=179	=179	=179	=179	=179	=179
4c	.	4cc 4g	.	4cc 4e	.	(8eeL	.
.	.	.	.	.	.	8gg)	.
4r	.	4r	.	4r	.	8ccc	.
.	.	.	.	.	.	8bbJ	.
4A	.	4a	.	4cc 4e	.	(8cccL	.
.	.	.	.	.	.	8bb)	.
4r	.	4r	.	4r	.	8aa	.
.	.	.	.	.	.	8ggJ	.
=180	=180	=180	=180	=180	=180	=180	=180
4Fn	.	4a	.	4cc 4d	.	(8aaL	.
.	.	.	.	.	.	8gg)	.
4r	.	4r	.	4r	.	8ffn	.
.	.	.	.	.	.	8eeJ	.
4G	.	4g	.	4b 4fn	.	4dd	.
4r	.	4r	.	4r	.	4gg	.
=181	=181	=181	=181	=181	=181	=181	=181
4C	.	4g	.	4cc 4e	.	4cc	.
4r	.	4r	.	4r	.	4r	.
2r	.	2r	.	(8ccL	.	2r	.
.	.	.	.	8b)	.	.	.
.	.	.	.	8a'	.	.	.
.	.	.	.	8g'J	.	.	.
=182	=182	=182	=182	=182	=182	=182	=182
2r	.	2r	.	(8fnL	.	2r	.
.	.	.	.	8e)	.	.	.
.	.	.	.	8d	.	.	.
.	.	.	.	8cJ	.	.	.
4GG	.	4d 4B	.	8BL	.	4fn 4G	.
.	.	.	.	8d	.	.	.
4r	.	4r	.	8g	.	4r	.
.	.	.	.	8fJ	.	.	.
=183	=183	=183	=183	=183	=183	=183	=183
4C	.	4c	.	(8eL	.	4e 4G	.
.	.	.	.	8g)	.	.	.
4r	.	4r	.	8cc'	.	4r	.
.	.	.	.	8b'J	.	.	.
2r	.	2r	.	(8ccL	.	2r	.
.	.	.	.	8b)	.	.	.
.	.	.	.	8a'	.	.	.
.	.	.	.	8g'J	.	.	.
=184	=184	=184	=184	=184	=184	=184	=184
2r	.	2r	.	(8fnL	.	2r	.
.	.	.	.	8e)	.	.	.
.	.	.	.	8d'	.	.	.
.	.	.	.	8c'J	.	.	.
4GG	.	4d 4B	.	8BL	.	4fn 4G	.
.	.	.	.	8d	.	.	.
4r	.	4r	.	8g	.	4r	.
.	.	.	.	8fJ	.	.	.
=185	=185	=185	=185	=185	=185	=185	=185
4C	.	4c	.	(8eL	.	4e 4G	.
.	.	.	.	8g)	.	.	.
4r	.	4r	.	8cc	.	4r	.
.	.	.	.	8bJ	.	.	.
4A	.	4c	.	(8ccL	.	4e	.
.	.	.	.	8b)	.	.	.
4r	.	4r	.	8a	.	4r	.
.	.	.	.	8gJ	.	.	.
=186	=186	=186	=186	=186	=186	=186	=186
4Fn	.	4c	.	(8aL	.	4d	.
.	.	.	.	8g)	.	.	.
4r	.	4r	.	8fn	.	4r	.
.	.	.	.	8eJ	.	.	.
4G	.	4B	.	4d	.	4fn	.
4r	.	4r	.	4g	.	4r	.
=187	=187	=187	=187	=187	=187	=187	=187
4C	.	4c	.	4c	.	4e	.
4r	.	4r	.	4r	.	4r	.
4AA	.	(8cL	.	4c	.	4e	.
.	.	8B)	.	.	.	.	.
4r	.	8A'	.	4r	.	4r	.
.	.	8G'J	.	.	.	.	.
=188	=188	=188	=188	=188	=188	=188	=188
4FFn	.	(8AL	.	4c	.	4d	.
.	.	8G)	.	.	.	.	.
4r	.	8Fn'	.	4r	.	4r	.
.	.	8E'J	.	.	.	.	.
4GG	.	4D	.	4B	.	4d	.
4r	.	4G	.	4r	.	4r	.
!!LO:LB
=189	=189	=189	=189	=189	=189	=189	=189
4CC	.	4C	.	4c	.	2.c	.
4r	.	4r	.	4r	.	.	.
(8CL	.	2r	.	2r	.	.	.
8BB)	.	.	.	.	.	.	.
8AA'	.	.	.	.	.	[4c	.
8GG'J	.	.	.	.	.	.	.
=190	=190	=190	=190	=190	=190	=190	=190
(8AAL	.	4E	.	2r	.	4c]	.
8GG)	.	.	.	.	.	.	.
8FFn'	.	8DL	.	.	.	(2c	.
8EE'J	.	8EJ	.	.	.	.	.
4DD	.	4Fn	.	[2d	.	.	.
4GG	.	8GL	.	.	.	4B)	.
.	.	8FJ	.	.	.	.	.
=191	=191	=191	=191	=191	=191	=191	=191
2CC	.	4E	.	4d]	.	2.e	.
.	.	4G	.	4d	.	.	.
(8EL	.	2c	.	(4G	.	.	.
8D)	.	.	.	.	.	.	.
8C'	.	.	.	4c)	.	[4e	.
8BB'J	.	.	.	.	.	.	.
=192	=192	=192	=192	=192	=192	=192	=192
(8CL	.	4G	.	2r	.	4e]	.
8BB)	.	.	.	.	.	.	.
8AA'	.	8F#L	.	.	.	(2e	.
8GG'J	.	8GJ	.	.	.	.	.
4FF#	.	4A	.	[2f#	.	.	.
4BB	.	8BL	.	.	.	4d#)	.
.	.	8AJ	.	.	.	.	.
=193	=193	=193	=193	=193	=193	=193	=193
2EE	.	4G	.	4f#y]	.	2.g	.
.	.	4B	.	4f#y	.	.	.
(8GL	.	2e	.	(4B	.	.	.
8F#y)	.	.	.	.	.	.	.
8E'	.	.	.	4e)	.	[4g	.
8D'J	.	.	.	.	.	.	.
=194	=194	=194	=194	=194	=194	=194	=194
(8EL	.	4B	.	2r	.	4g]	.
8D)	.	.	.	.	.	.	.
8C'	.	8AL	.	.	.	(2g	.
8BB'J	.	8BJ	.	.	.	.	.
4AA	.	4c	.	[2a	.	.	.
4D	.	8dL	.	.	.	4f#y)	.
.	.	8cJ	.	.	.	.	.
!!LO:LB
=195	=195	=195	=195	=195	=195	=195	=195
8GGL	.	4B	.	4a]	.	[1b	.
8AA	.	.	.	.	.	.	.
8BB	.	4d	.	4a	.	.	.
8CJ	.	.	.	.	.	.	.
8DL	.	[2g	.	4g	.	.	.
8E	.	.	.	.	.	.	.
8F#y	.	.	.	4f#y	.	.	.
8GJ	.	.	.	.	.	.	.
=196	=196	=196	=196	=196	=196	=196	=196
2C	.	(2g_	.	2e	.	4b]	.
.	.	.	.	.	.	(2a	.
2C#	.	2e)	.	2A	.	.	.
.	.	.	.	.	.	4g)	.
=197	=197	=197	=197	=197	=197	=197	=197
2D	.	8dL	.	4A	.	4f#y	.
.	.	8d	.	.	.	.	.
.	.	8d	.	4r	.	4r	.
.	.	8dJ	.	.	.	.	.
2r	.	8dL	.	4r	.	4r	.
.	.	8d	.	.	.	.	.
.	.	8d	.	(4b	.	(4dd	.
.	.	8dJ	.	.	.	.	.
=198	=198	=198	=198	=198	=198	=198	=198
1r	.	8dL	.	4a#)	.	4cc#)	.
.	.	8d	.	.	.	.	.
.	.	8d	.	(4a#y	.	(4cc#y	.
.	.	8dJ	.	.	.	.	.
.	.	8dL	.	4an)	.	4ccn)	.
.	.	8d	.	.	.	.	.
.	.	8d	.	(4a	.	(4cc	.
.	.	8dJ	.	.	.	.	.
=199	=199	=199	=199	=199	=199	=199	=199
1r	.	8dL	.	4g#)	.	4b)	.
.	.	8d	.	.	.	.	.
.	.	8d	.	(4g#y	.	(4b	.
.	.	8dJ	.	.	.	.	.
.	.	8dL	.	4gn)	.	4b-)	.
.	.	8d	.	.	.	.	.
.	.	8d	.	(4g	.	(4b-y	.
.	.	8dJ	.	.	.	.	.
=200	=200	=200	=200	=200	=200	=200	=200
4r	.	8dL	.	4f#y)	.	4a)	.
.	.	8d	.	.	.	.	.
4G	.	8d	.	4g	.	4b- 4d	.
.	.	8dJ	.	.	.	.	.
4D	.	8dL	.	4f#y	.	4a 4d	.
.	.	8d	.	.	.	.	.
4G	.	8d	.	4g	.	4b-y 4d	.
.	.	8dJ	.	.	.	.	.
!!LO:LB
=201	=201	=201	=201	=201	=201	=201	=201
2D	.	8dL	.	4f#y	.	4a 4d	.
.	.	8dd	.	.	.	.	.
.	.	8dd	.	4r	.	4r	.
.	.	8ddJ	.	.	.	.	.
2r	.	8ddL	.	4r	.	4r	.
.	.	8dd	.	.	.	.	.
.	.	8dd	.	(4bbn	.	(4ddd	.
.	.	8ddJ	.	.	.	.	.
=202	=202	=202	=202	=202	=202	=202	=202
1r	.	8ddL	.	4aa#)	.	4ccc#)	.
.	.	8dd	.	.	.	.	.
.	.	8dd	.	(4aa#y	.	(4ccc#y	.
.	.	8ddJ	.	.	.	.	.
.	.	8ddL	.	4aan)	.	4cccn)	.
.	.	8dd	.	.	.	.	.
.	.	8dd	.	(4aa	.	(4ccc	.
.	.	8ddJ	.	.	.	.	.
=203	=203	=203	=203	=203	=203	=203	=203
1r	.	8ddL	.	4gg#)	.	4bb)	.
.	.	8dd	.	.	.	.	.
.	.	8dd	.	(4gg#y	.	(4bb	.
.	.	8ddJ	.	.	.	.	.
.	.	8ddL	.	4ggn)	.	4bb-)	.
.	.	8dd	.	.	.	.	.
.	.	8dd	.	(4gg	.	(4bb-y	.
.	.	8ddJ	.	.	.	.	.
=204	=204	=204	=204	=204	=204	=204	=204
4r	.	8ddL	.	4ff#y)	.	4aa)	.
.	.	8dd	.	.	.	.	.
4G	.	8dd	.	4gg	.	4bb- 4dd	.
.	.	8ddJ	.	.	.	.	.
4D	.	8ddL	.	4ff#y	.	4aa 4dd	.
.	.	8dd	.	.	.	.	.
4G	.	8dd	.	4gg	.	4bb-y 4dd	.
.	.	8ddJ	.	.	.	.	.
=205	=205	=205	=205	=205	=205	=205	=205
4D	.	4dd	.	4ff#y	.	4aa 4dd	.
4r	.	8e-L	.	4r	.	(4cc#	.
.	.	8e-yJ	.	.	.	.	.
2r	.	8dL	.	2r	.	4dd	.
.	.	8d	.	.	.	.	.
.	.	8e-y	.	.	.	4cc#y	.
.	.	8e-yJ	.	.	.	.	.
=206	=206	=206	=206	=206	=206	=206	=206
4r	.	8dL	.	4r	.	4dd)	.
.	.	8d	.	.	.	.	.
4GG	.	8c#	.	4g	.	4b-	.
.	.	8c#yJ	.	.	.	.	.
4DD	.	8dL	.	4f#y	.	4a	.
.	.	8d	.	.	.	.	.
4GG	.	8c#y	.	4g	.	4b-y	.
.	.	8c#yJ	.	.	.	.	.
=207	=207	=207	=207	=207	=207	=207	=207
4DD	.	4d	.	4f#y	.	4a	.
4r	.	4r	.	8ee-L	.	(4ccc#	.
.	.	.	.	8ee-yJ	.	.	.
2r	.	2r	.	8ddL	.	4ddd	.
.	.	.	.	8dd	.	.	.
.	.	.	.	8ee-y	.	4ccc#y	.
.	.	.	.	8ee-yJ	.	.	.
=208	=208	=208	=208	=208	=208	=208	=208
4r	.	4r	.	8ddL	.	4ddd)	.
.	.	.	.	8dd	.	.	.
4G	.	8cc#L	.	8gg	.	4bb-	.
.	.	8cc#yJ	.	8ggJ	.	.	.
4D	.	8ddL	.	8ff#yL	.	4aa	.
.	.	8dd	.	8ff#y	.	.	.
4G	.	8cc#y	.	8gg	.	4bb-y	.
.	.	8cc#yJ	.	8ggJ	.	.	.
=209	=209	=209	=209	=209	=209	=209	=209
1D	.	2dd	.	2ff#y	.	2aa	.
.	.	2r	.	[2dd	.	2r	.
=210	=210	=210	=210	=210	=210	=210	=210
1E	.	1r	.	4dd]	.	1r	.
.	.	.	.	4g	.	.	.
.	.	.	.	[2ccn	.	.	.
=211	=211	=211	=211	=211	=211	=211	=211
1A	.	1r	.	4cc]	.	1r	.
.	.	.	.	4dd	.	.	.
.	.	.	.	[2een	.	.	.
=212	=212	=212	=212	=212	=212	=212	=212
1F#y	.	1r	.	4ee]	.	1r	.
.	.	.	.	4a	.	.	.
.	.	.	.	4dd	.	.	.
.	.	.	.	4cc	.	.	.
=213	=213	=213	=213	=213	=213	=213	=213
4G	.	1G	.	4b	.	2r	.
4A	.	.	.	4cc	.	.	.
4B	.	.	.	4dd	.	[2gg	.
4A	.	.	.	4cc	.	.	.
=214	=214	=214	=214	=214	=214	=214	=214
4G	.	1B	.	4b	.	4gg]	.
4A	.	.	.	4cc	.	4dd	.
4G	.	.	.	4b	.	[2gg	.
4F#y	.	.	.	4a	.	.	.
=215	=215	=215	=215	=215	=215	=215	=215
4E	.	1e	.	2g	.	4gg]	.
4D	.	.	.	.	.	4aa	.
4C#	.	.	.	[2gg	.	[2bbn	.
4BB	.	.	.	.	.	.	.
!!LO:LB
=216	=216	=216	=216	=216	=216	=216	=216
1AA	.	1c#	.	2gg]	.	4bb]	.
.	.	.	.	.	.	4ee	.
.	.	.	.	4ff#y	.	4aa	.
.	.	.	.	4ee	.	4gg	.
=217	=217	=217	=217	=217	=217	=217	=217
[1D	.	2d	.	1dd	.	2ff#y	.
.	.	[2dd	.	.	.	2f#y	.
=218	=218	=218	=218	=218	=218	=218	=218
1D_	.	4dd]	.	1ee	.	4g	.
.	.	4g	.	.	.	2gg	.
.	.	[2cc	.	.	.	.	.
.	.	.	.	.	.	4ff#y	.
=219	=219	=219	=219	=219	=219	=219	=219
1D_	.	4cc]	.	1aa	.	4ee	.
.	.	4dd	.	.	.	4dd	.
.	.	[2ee	.	.	.	4cc	.
.	.	.	.	.	.	4b	.
=220	=220	=220	=220	=220	=220	=220	=220
1D]	.	4ee]	.	1ff#y	.	4a	.
.	.	4a	.	.	.	4ccc	.
.	.	4dd	.	.	.	4bb	.
.	.	4cc	.	.	.	4aa	.
=221	=221	=221	=221	=221	=221	=221	=221
4EE-	.	4b-	.	4gg	.	1gg	.
8E-L	.	8gL	.	8b-L	.	.	.
8E-yJ	.	8gJ	.	8b-yJ	.	.	.
4E-y	.	4g	.	4b-y	.	.	.
4E-y	.	4g	.	4b-y	.	.	.
=222	=222	=222	=222	=222	=222	=222	=222
4EE-	.	4b-	.	4gg	.	1bb-	.
8E-L	.	8gL	.	8b-L	.	.	.
8E-yJ	.	8gJ	.	8b-yJ	.	.	.
4E-y	.	4g	.	4b-y	.	.	.
4E-y	.	4g	.	4b-y	.	.	.
=223	=223	=223	=223	=223	=223	=223	=223
4EE-	.	4b-	.	4gg	.	1eee-	.
8E-L	.	8gL	.	8b-L	.	.	.
8E-yJ	.	8gJ	.	8b-yJ	.	.	.
4E-y	.	4g	.	4b-y	.	.	.
4E-y	.	4g	.	4b-y	.	.	.
!!LO:LB
=224	=224	=224	=224	=224	=224	=224	=224
4EEn	.	4b-	.	4gg	.	1ccc#	.
8EnL	.	8gL	.	8b-L	.	.	.
8EJ	.	8gJ	.	8b-yJ	.	.	.
4E	.	4g	.	4b-y	.	.	.
4E	.	4g	.	4b-y	.	.	.
=225	=225	=225	=225	=225	=225	=225	=225
4Fn	.	4d	.	4a	.	4ddd	.
4r	.	4r	.	4r	.	8ddL	.
.	.	.	.	.	.	8ddJ	.
2r	.	2r	.	2r	.	4dd	.
.	.	.	.	.	.	4dd	.
=226	=226	=226	=226	=226	=226	=226	=226
4F#	.	4a	.	4dd	.	4cccn	.
4r	.	4r	.	4r	.	8ddL	.
.	.	.	.	.	.	8ddJ	.
2r	.	2r	.	2r	.	4dd	.
.	.	.	.	.	.	4dd	.
=227	=227	=227	=227	=227	=227	=227	=227
4G	.	4g	.	4dd	.	4bbn	.
4r	.	4r	.	4r	.	8ddL	.
.	.	.	.	.	.	8ddJ	.
2r	.	2r	.	2r	.	4dd	.
.	.	.	.	.	.	4dd	.
=228	=228	=228	=228	=228	=228	=228	=228
4D#	.	4a	.	4cc	.	4ff#y	.
4r	.	4r	.	4r	.	8ccL	.
.	.	.	.	.	.	8ccJ	.
2r	.	2r	.	2r	.	4cc	.
.	.	.	.	.	.	4cc	.
=229	=229	=229	=229	=229	=229	=229	=229
4E	.	4r	.	4g	.	4b	.
4r	.	8eL	.	8bL	.	8ggL	.
.	.	8eJ	.	8bJ	.	8ggJ	.
2r	.	4e	.	4b	.	4gg	.
.	.	4e	.	4b	.	4gg	.
=230	=230	=230	=230	=230	=230	=230	=230
4C#	.	4r	.	4r	.	4r	.
4r	.	8c#L	.	8b-L 8g	.	8eeL	.
.	.	8c#yJ	.	8b-yJ 8g	.	8eeJ	.
2r	.	4c#y	.	4b-y 4g	.	4ee	.
.	.	4c#y	.	4b-y 4g	.	4ee	.
=231	=231	=231	=231	=231	=231	=231	=231
4D	.	4r	.	4r	.	4r	.
4r	.	8dL	.	8bnL 8g	.	8ddL	.
.	.	8dJ	.	8bJ 8g	.	8ddJ	.
2r	.	4d	.	4b 4g	.	4dd	.
.	.	4d	.	4b 4g	.	4dd	.
!!LO:LB
=232	=232	=232	=232	=232	=232	=232	=232
4D	.	4r	.	4r	.	4r	.
4r	.	8AL	.	8dL 8c	.	8f#yL	.
.	.	8AJ	.	8dJ 8c	.	8f#yJ	.
2r	.	4A	.	4d 4c	.	4f#y	.
.	.	4A	.	4d 4c	.	4f#y	.
=233	=233	=233	=233	=233	=233	=233	=233
4GG	.	4G	.	4d 4B	.	4g	.
4r	.	4r	.	4r	.	8r	.
.	.	.	.	.	.	8d	.
2r	.	2r	.	2r	.	(8f#yL	.
.	.	.	.	.	.	8e)	.
.	.	.	.	.	.	(8g	.
.	.	.	.	.	.	8f#yJ)	.
=234	=234	=234	=234	=234	=234	=234	=234
1r	.	1r	.	1r	.	(8aL	.
.	.	.	.	.	.	8g)	.
.	.	.	.	.	.	(8b	.
.	.	.	.	.	.	8aJ)	.
.	.	.	.	.	.	(8ccL	.
.	.	.	.	.	.	8b)	.
.	.	.	.	.	.	(8dd	.
.	.	.	.	.	.	8ccJ)	.
=235	=235	=235	=235	=235	=235	=235	=235
.	.	.	.	.	.	(<16qee	.
4GG	.	4G	.	4B	.	2dd)	.
4r	.	4G	.	4B	.	.	.
2r	.	4G	.	4B	.	(4.b	.
.	.	4G	.	4B	.	.	.
.	.	.	.	.	.	8gg)	.
=236	=236	=236	=236	=236	=236	=236	=236
4GG	.	4G	.	4B	.	(2gg	.
4r	.	4G	.	4B	.	.	.
2r	.	4G	.	4B	.	2dd)	.
.	.	4G	.	4B	.	.	.
=237	=237	=237	=237	=237	=237	=237	=237
4D	.	4F#y	.	4A	.	(2dd_	.
4r	.	4F#y	.	4A	.	.	.
2r	.	4F#y	.	(4A	.	4cc	.
.	.	4F#y	.	4c)	.	4a)	.
=238	=238	=238	=238	=238	=238	=238	=238
4GG	.	(4F#y	.	(4c	.	(4.a	.
4r	.	4G)	.	4B)	.	.	.
.	.	.	.	.	.	8b)	.
2r	.	4B	.	4d	.	2g	.
.	.	4B	.	4d	.	.	.
=239	=239	=239	=239	=239	=239	=239	=239
4GG	.	4G	.	4B	.	2dd	.
4r	.	4G	.	4B	.	.	.
2r	.	4G	.	4B	.	(4.b	.
.	.	4G	.	4B	.	.	.
.	.	.	.	.	.	8gg)	.
=240	=240	=240	=240	=240	=240	=240	=240
4GG	.	4G	.	4B	.	(2gg	.
4r	.	4G	.	4B	.	.	.
2r	.	4G	.	4B	.	2dd)	.
.	.	4G	.	4B	.	.	.
=241	=241	=241	=241	=241	=241	=241	=241
4D	.	4F#y	.	4A	.	(2dd_	.
4r	.	4F#y	.	4A	.	.	.
2r	.	4F#y	.	(4A	.	4cc	.
.	.	4F#y	.	4c)	.	4a)	.
=242	=242	=242	=242	=242	=242	=242	=242
4GG	.	4G	.	4B	.	8gL	.
.	.	.	.	.	.	8dd	.
4r	.	4r	.	4r	.	8ee	.
.	.	.	.	.	.	8ff#yJ	.
2r	.	2r	.	2r	.	8ggL	.
.	.	.	.	.	.	8aa	.
.	.	.	.	.	.	8bb	.
.	.	.	.	.	.	8cccJ	.
=243	=243	=243	=243	=243	=243	=243	=243
!	!	!	!	!	!	!LO:TX:t=semplice	!
[1GG	.	(4G	.	(8bL	.	4ddd	.
.	.	.	.	8dd	.	.	.
.	.	4B	.	8g	.	4ddd	.
.	.	.	.	8ddJ	.	.	.
.	.	4d	.	8bL	.	4bb	.
.	.	.	.	8dd	.	.	.
.	.	4B)	.	8g	.	4ggg	.
.	.	.	.	8ddJ)	.	.	.
=244	=244	=244	=244	=244	=244	=244	=244
1GG]	.	(4G	.	(8bL	.	4ggg	.
.	.	.	.	8dd	.	.	.
.	.	4B	.	8g	.	4ggg	.
.	.	.	.	8ddJ	.	.	.
.	.	4d	.	8bL	.	[2ddd	.
.	.	.	.	8dd	.	.	.
.	.	4B)	.	8g	.	.	.
.	.	.	.	8ddJ)	.	.	.
=245	=245	=245	=245	=245	=245	=245	=245
1DD	.	(4F#y	.	(8ccL	.	4ddd]	.
.	.	.	.	8dd	.	.	.
.	.	4A	.	8a	.	4ddd	.
.	.	.	.	8ddJ	.	.	.
.	.	4d	.	8ccL	.	4ccc	.
.	.	.	.	8dd	.	.	.
.	.	4F#y)	.	8a	.	4aa	.
.	.	.	.	8ddJ)	.	.	.
!!LO:LB
=246	=246	=246	=246	=246	=246	=246	=246
[1GG	.	(4G	.	(8bL	.	4aa	.
.	.	.	.	8dd	.	.	.
.	.	4B	.	8g	.	4bb	.
.	.	.	.	8ddJ	.	.	.
.	.	4d	.	8bL	.	2gg	.
.	.	.	.	8dd	.	.	.
.	.	4B)	.	8g	.	.	.
.	.	.	.	8ddJ)	.	.	.
=247	=247	=247	=247	=247	=247	=247	=247
1GG_	.	(4G	.	(8bL	.	(8ccc#L	.
.	.	.	.	8dd	.	8ddd	.
.	.	4B	.	8g	.	8ccc#y	.
.	.	.	.	8ddJ	.	8dddJ	.
.	.	4d	.	8bL	.	4bb)	.
.	.	.	.	8dd	.	.	.
.	.	4B)	.	8g	.	4ggg	.
.	.	.	.	8ddJ)	.	.	.
=248	=248	=248	=248	=248	=248	=248	=248
1GG]	.	(4G	.	(8bL	.	(8fff#yL	.
.	.	.	.	8dd	.	8ggg	.
.	.	4B	.	8g	.	8fff#y	.
.	.	.	.	8ddJ	.	8gggJ	.
.	.	4d	.	8bL	.	4ddd)	.
.	.	.	.	8dd	.	.	.
.	.	4B)	.	8g	.	4r	.
.	.	.	.	8ddJ)	.	.	.
=249	=249	=249	=249	=249	=249	=249	=249
1DD	.	(4F#y	.	(<8aL	.	(8ccc#L	.
.	.	.	.	8dd	.	8ddd	.
.	.	4A	.	8f#y	.	8ccc#y	.
.	.	.	.	8ddJ	.	8dddJ	.
.	.	4d	.	8aL	.	4cccn)	.
.	.	.	.	8dd	.	.	.
.	.	4c)	.	8f#y	.	4aa	.
.	.	.	.	8ddJ)	.	.	.
=250	=250	=250	=250	=250	=250	=250	=250
4GG	.	8BL	.	8gL	.	4gg	.
.	.	8G	.	8B	.	.	.
8AAL	.	8A	.	8c	.	4r	.
8BBJ	.	8BJ	.	8dJ	.	.	.
8CL	.	8cL	.	8eL	.	2r	.
8D	.	8d	.	8f#y	.	.	.
8E	.	8e	.	8g	.	.	.
8F#yJ	.	8f#yJ	.	8aJ	.	.	.
=251	=251	=251	=251	=251	=251	=251	=251
4G	.	4g	.	4b	.	4b	.
4G	.	4g	.	4b	.	4b	.
4F#y	.	4d	.	4a	.	4dd	.
4F#y	.	4d	.	4a	.	4dd	.
!!LO:LB
=252	=252	=252	=252	=252	=252	=252	=252
2.E	.	2.B	.	2.g	.	2.gg	.
4BB	.	4d	.	4g	.	4g	.
=253	=253	=253	=253	=253	=253	=253	=253
4D	.	4d	.	4g	.	4a	.
4D	.	4d	.	4g	.	4a	.
4D	.	4d	.	4f#y	.	4dd	.
4D	.	4d	.	4f#y	.	4dd	.
=254	=254	=254	=254	=254	=254	=254	=254
4GG	.	8dL	.	8gL	.	2b	.
.	.	8G	.	8B	.	.	.
8AAL	.	8A	.	8c	.	.	.
8BBJ	.	8BJ	.	8dJ	.	.	.
8CL	.	8cL	.	8eL	.	2r	.
8D	.	8d	.	8f#y	.	.	.
8E	.	8e	.	8g	.	.	.
8F#yJ	.	8f#yJ	.	8aJ	.	.	.
=255	=255	=255	=255	=255	=255	=255	=255
4G	.	4g	.	4b	.	4b	.
4G	.	4g	.	4b	.	4b	.
4F#y	.	4d	.	4a	.	4dd	.
4F#y	.	4d	.	4a	.	4dd	.
=256	=256	=256	=256	=256	=256	=256	=256
2E	.	2.B	.	2g	.	2.gg	.
2r	.	.	.	2r	.	.	.
.	.	(8GL	.	.	.	(8eL	.
.	.	8AJ)	.	.	.	8f#yJ)	.
=257	=257	=257	=257	=257	=257	=257	=257
4E	.	4B	.	4g	.	4g	.
4E	.	4B	.	4g	.	4g	.
4D	.	4B	.	4f#y	.	4b	.
4D	.	4B	.	4f#y	.	4b	.
=258	=258	=258	=258	=258	=258	=258	=258
2C	.	2.G	.	2e	.	2.ee	.
2r	.	.	.	2r	.	.	.
.	.	(8EL	.	.	.	(8cL	.
.	.	8F#yJ)	.	.	.	8dJ)	.
!!LO:LB
=259	=259	=259	=259	=259	=259	=259	=259
4C	.	4G	.	4e	.	4e	.
4C	.	4G	.	4e	.	4e	.
4BB	.	4G	.	4d	.	4g	.
4BB	.	4G	.	4d	.	4g	.
=260	=260	=260	=260	=260	=260	=260	=260
4AA	decrescendo	4E	decrescendo	4c	decrescendo	4cc	decrescendo
4r	.	4r	.	4r	.	4r	.
4GG	.	4G	.	4e	.	4cc	.
4r	.	4r	.	4r	.	4r	.
=261	=261	=261	=261	=261	=261	=261	=261
4FF#y	.	4A	.	4a	.	4cc	.
4r	.	4r	.	4r	.	4r	.
4EE	.	4A	.	4g	.	4cc	.
4r	.	4r	.	4r	.	4r	.
=262	=262	=262	=262	=262	=262	=262	=262
2DD	.	2A	.	2f#y	.	2.cc	.
2r	.	2r	.	2r	.	.	.
.	.	.	.	.	.	(4d	.
=263	=263	=263	=263	=263	=263	=263	=263
1r	.	1r	.	1r	.	4f#y)	.
.	.	.	.	.	.	(4f#y	.
.	.	.	.	.	.	4a)	.
.	.	.	.	.	.	(4a	.
=264	=264	=264	=264	=264	=264	=264	=264
[1d	.	[1a [1f#y	.	[1cc	.	4cc)	.
.	.	.	.	.	.	4r	.
.	.	.	.	.	.	4r	.
.	.	.	.	.	.	(4dd	.
=265	=265	=265	=265	=265	=265	=265	=265
1d_	.	1a_ 1f#y_	.	1cc_	.	4ff#y)	.
.	.	.	.	.	.	(4ff#y	.
.	.	.	.	.	.	4aa)	.
.	.	.	.	.	.	(4aa	.
=266	=266	=266	=266	=266	=266	=266	=266
4d]	.	4a] 4f#y]	.	4cc]	.	4ccc)	.
4r	.	4r	.	4r	.	4r	.
2r	.	2r	.	4r	.	2r	.
.	.	.	.	(4d	.	.	.
=267	=267	=267	=267	=267	=267	=267	=267
1r	.	1r	.	4e-	.	1r	.
.	.	.	.	4en	.	.	.
.	.	.	.	4fn	.	.	.
.	.	.	.	4f#)	.	.	.
=268:|!	=268:|!	=268:|!	=268:|!	=268:|!	=268:|!	=268:|!	=268:|!
1r	.	2r	.	[1g	.	1r	.
.	.	4r	.	.	.	.	.
.	.	(4b	.	.	.	.	.
=269	=269	=269	=269	=269	=269	=269	=269
1r	.	4cc	.	1g_	.	1r	.
.	.	4cc#	.	.	.	.	.
.	.	4dd	.	.	.	.	.
.	.	4dd#)	.	.	.	.	.
=270	=270	=270	=270	=270	=270	=270	=270
2r	.	[1ee	.	1g_	.	1r	.
4r	.	.	.	.	.	.	.
(4A	.	.	.	.	.	.	.
=271	=271	=271	=271	=271	=271	=271	=271
4B-	.	1ee_	.	1g]	.	1r	.
4Bn	.	.	.	.	.	.	.
4c	.	.	.	.	.	.	.
4c#)	.	.	.	.	.	.	.
=272	=272	=272	=272	=272	=272	=272	=272
[1d	.	1ee]	.	[1f#y	.	2r	.
.	.	.	.	.	.	4r	.
.	.	.	.	.	.	(4aa	.
=273	=273	=273	=273	=273	=273	=273	=273
(2d_	.	[1dd	.	1f#y]	.	4bb-	.
.	.	.	.	.	.	4bbn	.
2cn)	.	.	.	.	.	4ccc	.
.	.	.	.	.	.	4ccc#)	.
=274	=274	=274	=274	=274	=274	=274	=274
2.B	.	2.dd]	.	[1ffn [1g	.	[1ddd	.
(4G	.	(4B	.	.	.	.	.
!!LO:LB
=275	=275	=275	=275	=275	=275	=275	=275
4A-	.	4c	.	1ff] 1g]	.	1ddd_	.
4An	.	4c#	.	.	.	.	.
4B-	.	4d	.	.	.	.	.
4Bn)	.	4d#)	.	.	.	.	.
=276	=276	=276	=276	=276	=276	=276	=276
*	*	*^	*	*	*	*	*
2.c	.	2r	[1e	.	2.ee 2.g	.	2ddd]	.
.	.	2ee	.	.	.	.	[2cccn	.
(4E	.	.	.	.	(4g	.	.	.
=277	=277	=277	=277	=277	=277	=277	=277	=277
4Fn	.	1dd	1e_	.	4g#	.	2ccc]	.
4F#	.	.	.	.	4a	.	.	.
4G	.	.	.	.	4a#	.	[2bb	.
4G#)	.	.	.	.	4b)	.	.	.
=278	=278	=278	=278	=278	=278	=278	=278	=278
2.A	.	2.cc	2.e]	.	2.cc	.	(2bb_	.
.	.	.	.	.	.	.	4aa)	.
(4D	.	(4a	4ryy	.	[4cc	.	(4ff#y	.
*	*	*v	*v	*	*	*	*	*
=279	=279	=279	=279	=279	=279	=279	=279
4E-	.	4g	.	4cc]	.	4gg	.
4En	.	4b-	.	2cc	.	4gg#	.
4Fn	.	2a)	.	.	.	4aa	.
4F#)	.	.	.	[4cc	.	4ee-)	.
=280	=280	=280	=280	=280	=280	=280	=280
(2G	.	(2a_	.	(2cc_	.	(2dd	.
2E)	.	2g)	.	2b)	.	2gg)	.
=281	=281	=281	=281	=281	=281	=281	=281
(2C	.	(2e	.	1aT	.	(2gg_	.
2D)	.	4d	.	.	.	2ff#y)	.
.	.	4c)	.	.	.	.	.
.	.	.	.	(<32qgL	.	.	.
.	.	.	.	32qaJ)	.	.	.
!!LO:LB
=282	=282	=282	=282	=282	=282	=282	=282
4G	.	4B	.	4g	.	1gg	.
4r	.	4r	.	4r	.	.	.
2r	.	2r	.	[2g	.	.	.
=283	=283	=283	=283	=283	=283	=283	=283
1r	.	1d	.	2g]	.	1bb	.
.	.	.	.	[2b	.	.	.
=284	=284	=284	=284	=284	=284	=284	=284
1G	.	1e	.	2b]	.	1eee	.
.	.	.	.	[2ee	.	.	.
=285	=285	=285	=285	=285	=285	=285	=285
1A	.	1a	.	4ee]	.	1ccc#T	.
.	.	.	.	4cc#	.	.	.
.	.	.	.	4g	.	.	.
.	.	.	.	4e	.	.	.
.	.	.	.	.	.	(<32qbbL	.
.	.	.	.	.	.	32qccc#yJ)	.
=286	=286	=286	=286	=286	=286	=286	=286
1d	.	1f#yT	.	4d	.	2.ddd	.
.	.	.	.	4f#y	.	.	.
.	.	.	.	4a	.	.	.
.	.	.	.	[4dd	.	8ddL	.
.	.	.	.	.	.	8eeJ	.
.	.	(<32qeL	.	.	.	.	.
.	.	32qfJ)	.	.	.	.	.
=287	=287	=287	=287	=287	=287	=287	=287
1BT	.	[1g	.	8ddL]	.	8ffnL	.
.	.	.	.	8ccn	.	8ee	.
.	.	.	.	8b	.	8dd	.
.	.	.	.	8aJ	.	8ccJ	.
.	.	.	.	8gL	.	8bL	.
.	.	.	.	8fn	.	8a	.
.	.	.	.	8e	.	8g	.
.	.	.	.	8dJ	.	8fJ	.
(<32qAL	.	.	.	.	.	.	.
32qBJ)	.	.	.	.	.	.	.
=288	=288	=288	=288	=288	=288	=288	=288
4c	.	4g]	.	4c	.	4e	.
4r	.	4r	.	4r	.	4r	.
4A	.	4a	.	4cc	.	4ee	.
4r	.	4r	.	4r	.	4r	.
!!LO:LB
=289	=289	=289	=289	=289	=289	=289	=289
4F#y	.	4a	.	4cc	.	4dd	.
4r	.	4r	.	4r	.	4r	.
4G	.	4g	.	4b	.	4gg	.
4r	.	4r	.	4r	.	4r	.
=290	=290	=290	=290	=290	=290	=290	=290
4C	.	4e	.	4g	.	4a	.
4r	.	4r	.	4r	.	4r	.
4D	.	4d	.	4cc 4d	.	4ff#y 4a 4d	.
4r	.	4r	.	4r	.	4r	.
=291	=291	=291	=291	=291	=291	=291	=291
4GG	.	4d	.	4b 4d 4G	.	4gg 4b 4d	.
4r	.	4r	.	4r	.	4r	.
2r	.	2r	.	2r	.	2r	.
=292	=292	=292	=292	=292	=292	=292	=292
1r	.	1r	.	1r	.	(>1g	.
=293	=293	=293	=293	=293	=293	=293	=293
1r	.	1r	.	1r	.	1b	.
=294	=294	=294	=294	=294	=294	=294	=294
(>1C#	.	[1G	.	[1B-	.	1ee	.
=295	=295	=295	=295	=295	=295	=295	=295
1E)	.	1G_	.	1B-y]	.	1cc#)	.
=296	=296	=296	=296	=296	=296	=296	=296
(>1D	.	1G]	.	1Bn	.	1dd	.
=297	=297	=297	=297	=297	=297	=297	=297
1DD)	.	1AT	.	1cT	.	1f#yT	.
.	.	(<32qGL	.	.	.	.	.
.	.	32qAJ)	.	.	.	.	.
.	.	.	.	(<32qBL	.	.	.
.	.	.	.	32qcJ)	.	.	.
.	.	.	.	.	.	(<32qeL	.
.	.	.	.	.	.	32qfJ)	.
=298	=298	=298	=298	=298	=298	=298	=298
4GG	.	4G	.	4B	.	4g	.
4r	.	4r	.	4r	.	4r	.
2r	.	2r	.	2r	.	2r	.
==	==	==	==	==	==	==	==
*-	*-	*-	*-	*-	*-	*-	*-
!!!RDF**kern: > = above
!!!RDF**kern: < = below
